X:77
T: MEIN ARM WIRD STARK
N: B0105
O: Europa, Mitteleuropa, Deutschland
R: Helden -, Ehren -, Gedaechtnis -, Kriegs - Lied
M: 4/4
L: 1/8
K: Bb
F2 | B2B2B3F | c2c2c3
c | dcBAG2c2 | F4z2
F2 | c3cBAGF | FEE2E3
E | DFB2c2A2 | B4z2

